!!!XEN: As the hawk soars
!!!AGN: Dream song
!!!COM: Anonymous
!!!CNT: Native American -- Ojibway
!!!TXO: Ojibway
!!!MLC: White Earth reservation, northern Minnesota, U.S.A.
!!!MRD: 1907-1909///
!!!MPN: Ga'gandac' ("One whose sails are driven by the wind")
**kern
*MM112
*Imale
*k[f#c#g#]
*clefF4
*M2/4
=1
8e
8e
4e
=2
8e
8c#
12E
12c#
12a
=3
*M3/4
2.A
qA
=4
*M2/4
8F#
8A
8A
8A
=5
4.A
8A
=6
2.A
=7
8e
8e
[4e
=8
8e]
8c#
12e
12c#
12a
=9
*3/4
2.A
qA
=10
*M2/4
8F#
8A
4A
=11
[4A
8.A]
16A
=12
*M3/4
2.A
=13
8e
8e
2e
=14
8e
8c#
[4A
=15
*M2/4
4.A]
8A
=16
8F#
8A
[4A
=17
8A]
8A
12A
12A
12F#
=18
[2E
=19
4.E]
8E
=20
16F#
8.A
[4A
=21
4A]
4F#
qA
=22
16F#
8.E
4C#
=23
16F#
[8.C#
4C#]
=24
*M3/4
8.AA
16AA
4.AA
8AA
=25
2.AA
==
*-
!!!OCL: Frances Densmore
!!!YOR: Chippewa [i.e., Ojibway] Music, Bulletin 45 of the Bureau of American Ethnology, Smitsonian Institution
!!!ONM: 116
!!!PPG: 131
!!!PUB: published
!!!PPR: Government Printing Office
!!!PPP: Washington, D.C.
!!!PDT: 1909///
!!!EST: missing clef changes, text, drum tempo, and drum part
!!!YEC: Copyright 1998 Paul von Hippel
!!!YEM: Rights to all derivate electronic formats reserved.
!!!EFL: 10/42
